src/assets/icons/linkedin.svg

<svg height="44" viewBox="0 0 44 44" width="44" xmlns="http://www.w3.org/2000/svg" xmlns:xlink="http://www.w3.org/1999/xlink"><defs><linearGradient id="a" x1="100%" x2="0%" y1="0%" y2="100%"><stop offset="0" stop-color="#fa7d78"/><stop offset="1" stop-color="#6114cc"/></linearGradient><path id="b" d="m21.1666667 2h-18.33333337c-.5 0-.83333333.33333333-.83333333.83333333v18.33333337c0 .5.33333333.8333333.83333333.8333333h18.33333337c.5 0 .8333333-.3333333.8333333-.8333333v-18.33333337c0-.5-.3333333-.83333333-.8333333-.83333333zm-13.25000003 17.0833333h-2.91666667v-9.5833333h3v9.5833333zm-1.5-10.91666663c-.91666667 0-1.75-.75-1.75-1.75 0-.91666667.75-1.75 1.75-1.75.91666666 0 1.75.75 1.75 1.75s-.75 1.75-1.75 1.75zm12.66666663 10.91666663h-3v-4.6666666c0-1.0833334 0-2.5-1.5-2.5-1.5833333 0-1.75 1.1666666-1.75 2.4166666v4.75h-2.99999997v-9.5833333h2.83333337v1.3333333c.4166666-.75 1.3333333-1.49999997 2.8333333-1.49999997 3 0 3.5833333 1.99999997 3.5833333 4.58333337z"/><mask id="c" fill="#fff"><use fill="#fff" fill-rule="evenodd" xlink:href="#b"/></mask></defs><g fill="none" fill-rule="evenodd"><circle cx="22" cy="22" fill="url(#a)" r="22"/><g transform="translate(10 10)"><path d="m0 0h24v24h-24z"/><g fill-rule="evenodd"><use fill="#0077b5" xlink:href="#b"/><g fill="#f8f8f8" mask="url(#c)"><path d="m0 0h24v24h-24z"/></g></g></g></g></svg>

<?xml version="1.0" encoding="UTF-8"?>
<svg width="44px" height="44px" viewBox="0 0 44 44" version="1.1" xmlns="http://www.w3.org/2000/svg" xmlns:xlink="http://www.w3.org/1999/xlink">
    <!-- Generator: Sketch 49.3 (51167) - http://www.bohemiancoding.com/sketch -->
    <title>linkedin</title>
    <desc>Created with Sketch.</desc>
    <defs>
        <linearGradient x1="100%" y1="0%" x2="0%" y2="100%" id="linearGradient-1">
            <stop stop-color="#FA7D78" offset="0%"></stop>
            <stop stop-color="#6114CC" offset="100%"></stop>
        </linearGradient>
        <path d="M21.1666667,2 L2.83333333,2 C2.33333333,2 2,2.33333333 2,2.83333333 L2,21.1666667 C2,21.6666667 2.33333333,22 2.83333333,22 L21.1666667,22 C21.6666667,22 22,21.6666667 22,21.1666667 L22,2.83333333 C22,2.33333333 21.6666667,2 21.1666667,2 Z M7.91666667,19.0833333 L5,19.0833333 L5,9.5 L8,9.5 L8,19.0833333 L7.91666667,19.0833333 Z M6.41666667,8.16666667 C5.5,8.16666667 4.66666667,7.41666667 4.66666667,6.41666667 C4.66666667,5.5 5.41666667,4.66666667 6.41666667,4.66666667 C7.33333333,4.66666667 8.16666667,5.41666667 8.16666667,6.41666667 C8.16666667,7.41666667 7.41666667,8.16666667 6.41666667,8.16666667 Z M19.0833333,19.0833333 L16.0833333,19.0833333 L16.0833333,14.4166667 C16.0833333,13.3333333 16.0833333,11.9166667 14.5833333,11.9166667 C13,11.9166667 12.8333333,13.0833333 12.8333333,14.3333333 L12.8333333,19.0833333 L9.83333333,19.0833333 L9.83333333,9.5 L12.6666667,9.5 L12.6666667,10.8333333 L12.6666667,10.8333333 C13.0833333,10.0833333 14,9.33333333 15.5,9.33333333 C18.5,9.33333333 19.0833333,11.3333333 19.0833333,13.9166667 L19.0833333,19.0833333 Z" id="path-2"></path>
    </defs>
    <g id="icons" stroke="none" stroke-width="1" fill="none" fill-rule="evenodd">
        <g id="Artboard-2" transform="translate(-14.000000, -8.000000)">
            <g id="linkedin" transform="translate(14.000000, 8.000000)">
                <circle id="Oval-2" fill="url(#linearGradient-1)" cx="22" cy="22" r="22"></circle>
                <g id="Icon/App/LinkedIn" transform="translate(10.000000, 10.000000)">
                    <rect id="Bounding-Box" x="0" y="0" width="24" height="24"></rect>
                    <mask id="mask-3" fill="white">
                        <use xlink:href="#path-2"></use>
                    </mask>
                    <use id="Mask" fill="#0077B5" fill-rule="evenodd" xlink:href="#path-2"></use>
                    <g id="Mixin/Fill/White" mask="url(#mask-3)" fill="#F8F8F8" fill-rule="evenodd">
                        <rect id="Box" x="0" y="0" width="24" height="24"></rect>
                    </g>
                </g>
            </g>
        </g>
    </g>
</svg>
